;Project Trainer-1
;Created by Estlcam version 11 build 11.116
;Machining time about 00:50:26 hours

G90
M03 S24000
G00 X0.0000 Y0.0000 Z0.0000 F2100
G00 Z10.0000 F480


;No. 1: Engraving 5
G00 X39.6748 Y0.5916 F2100
G00 Z0.5000 F480
G01 Z-2.0000 F240 S24000
G01 Y228.0532 F900
G00 Z10.0000 F480


;No. 2: Engraving 4
G00 X39.6748 Y228.0532 Z10.0000 F2100
G00 Z0.5000 F480
G01 Z-8.0000 F240
G01 X34.1128 Y338.6896 F900
G00 Z0.0000 F480
G01 X33.5676 Y349.5359 F900
G01 Z-8.0000 F240
G01 X30.9229 Y402.1425 F900
G01 X8.7520 F900
G01 X0.0000 Y228.0532 F900
G01 Y81.8421 F900
G00 Z0.0000 F480
G01 Y70.9821 F900
G01 Z-8.0000 F240
G01 Y0.5916 F900
G01 X39.6748 F900
G00 Z10.0000 F480


;No. 3: Engraving 29
G00 X39.6748 Y0.5916 Z10.0000 F2100
G00 Z0.5000 F480
G01 Z-8.0000 F240
G01 X80.2982 F900
G03 X89.9668 Y10.2602 I-0.0283 J9.6969 F900
G01 Y22.5845 F900
G00 Z10.0000 F480


;No. 4: Engraving 27
G00 X89.9668 Y22.5845 Z10.0000 F2100
G00 Z0.5000 F480
G01 Z-8.0000 F240
G01 X104.3741 Y22.5244 F900
G00 Z0.0000 F480
G01 X115.2340 Y22.4792 F900
G01 Z-8.0000 F240
G01 X129.6414 Y22.4191 F900
G00 Z10.0000 F480


;No. 5: Engraving 30
G00 X129.6414 Y22.4191 Z10.0000 F2100
G00 Z0.5000 F480
G01 Z-8.0000 F240
G01 Y10.2602 F900
G01 X129.6522 Y9.8050 F900
G03 X139.3100 Y0.5916 I9.6868 J0.4855 F900
G00 Z10.0000 F480


;No. 6: Engraving 74
G00 X135.3908 Y42.8509 Z10.0000 F2100
G00 Z0.5000 F480
G01 Z-8.0000 F240
G03 X134.4674 Y42.2857 I-0.2883 J-0.5660 F900
G03 X135.6676 Y41.9973 I0.6348 J0.0000 F900
G03 X135.3908 Y42.8509 I-0.5653 J0.2884 F900
G00 Z10.0000 F480


;No. 7: Engraving 31
G00 X107.8364 Y41.1125 Z10.0000 F2100
G00 Z0.5000 F480
G01 Z-8.0000 F240
G01 Y28.4125 F900
G01 X111.6464 F900
G01 Y41.1125 F900
G01 X107.8364 F900
G00 Z10.0000 F480


;No. 8: Engraving 77
G00 X83.9406 Y41.9977 Z10.0000 F2100
G00 Z0.5000 F480
G01 Z-8.0000 F240
G03 X85.0194 Y42.6584 I0.5653 J0.2880 F900
G03 X83.8710 Y42.2857 I-0.5137 J-0.3728 F900
G01 X83.8791 Y42.1864 F900
G01 X83.9024 Y42.0896 F900
G01 X83.9406 Y41.9977 F900
G00 Z10.0000 F480


;No. 9: Engraving 23
G00 X89.9668 Y85.3130 Z10.0000 F2100
G00 Z0.5000 F480
G01 Z-2.0000 F240
G01 Y22.5845 F900
G00 Z10.0000 F480


;No. 10: Engraving 24
G00 X94.5395 Y85.3130 Z10.0000 F2100
G00 Z0.5000 F480
G01 Z-2.0000 F240
G01 X94.5415 Y22.5673 F900
G00 Z10.0000 F480


;No. 11: Engraving 25
G00 X125.0710 Y85.3130 Z10.0000 F2100
G00 Z0.5000 F480
G01 Z-2.0000 F240
G01 X125.0673 Y22.5673 F900
G00 Z10.0000 F480


;No. 12: Engraving 26
G00 X129.6414 Y85.3130 Z10.0000 F2100
G00 Z0.5000 F480
G01 Z-2.0000 F240
G01 Y22.4191 F900
G00 Z10.0000 F480


;No. 13: Engraving 21
G00 X110.8199 Y100.8281 Z10.0000 F2100
G00 Z0.5000 F480
G01 Z-2.0000 F240
G01 Y126.2281 F900
G00 Z10.0000 F480


;No. 14: Engraving 19
G00 X110.8199 Y136.3882 Z10.0000 F2100
G00 Z0.5000 F480
G01 Z-2.0000 F240
G01 Y161.7882 F900
G00 Z10.0000 F480


;No. 15: Engraving 12
G00 X125.0716 Y175.2713 Z10.0000 F2100
G00 Z0.5000 F480
G01 Z-2.0000 F240
G01 X125.0732 Y227.8011 F900
G01 X111.6230 Y492.0670 F900
G01 Y490.3685 F900
G00 Z10.0000 F480


;No. 16: Engraving 34
G00 X147.4803 Y492.2533 Z10.0000 F2100
G00 Z0.5000 F480
G01 Z-8.0000 F240
G01 Y491.1125 F900
G01 Y485.5781 F900
G02 X141.1303 I-3.1750 J0.0001 F900
G01 Y491.1125 F900
G01 Y492.0670 F900
G00 Z10.0000 F480


;No. 17: Engraving 10
G00 X146.7655 Y440.0337 Z10.0000 F2100
G00 Z0.5000 F480
G01 Z-8.0000 F240
G01 X150.5734 Y371.7762 F900
G00 Z10.0000 F480


;No. 18: Engraving 33
G00 X112.0454 Y401.6995 Z10.0000 F2100
G00 Z0.5000 F480
G01 Z-8.0000 F240
G01 X107.7274 F900
G01 Y436.9480 F900
G01 X112.0454 F900
G01 Y401.6995 F900
G00 Z10.0000 F480


;No. 19: Engraving 9
G00 X63.5158 Y370.0849 Z10.0000 F2100
G00 Z0.5000 F480
G01 Z-8.0000 F240
G01 Y439.4058 F900
G00 Z10.0000 F480


;No. 20: Engraving 1
G00 X26.2332 Y402.1425 Z10.0000 F2100
G00 Z0.5000 F480
G01 Z-2.0000 F240
G01 X35.1065 Y227.8011 F900
G01 X35.0991 Y0.5916 F900
G00 Z10.0000 F480


;No. 21: Engraving 32
G00 X16.4863 Y83.7261 Z10.0000 F2100
G00 Z0.5000 F480
G01 Z-8.0000 F240
G02 X18.5066 Y84.2228 I3.2809 J-8.9883 F900
G01 X21.0466 F900
G02 X29.4396 Y74.6435 I-1.3051 J-9.6099 F900
G01 Y52.1269 F900
G02 X21.0466 Y42.5476 I-9.6980 J0.0305 F900
G01 X18.5066 F900
G02 X10.1136 Y52.1269 I1.3050 J9.6099 F900
G01 Y74.6435 F900
G02 X10.1296 Y75.1991 I9.8699 J-0.0067 F900
G02 X16.4863 Y83.7261 I9.6893 J-0.5903 F900
G00 Z10.0000 F480


;No. 22: Engraving 17
G00 X97.1041 Y101.8441 Z10.0000 F2100
G00 Z0.5000 F480
G01 Z-8.0000 F240
G01 Y126.2281 F900
G01 X98.1201 F900
G01 X122.5041 F900
G01 Y124.9581 F900
G01 Y100.8281 F900
G01 X121.2341 F900
G01 X97.1041 F900
G01 Y101.8441 F900
G00 Z10.0000 F480


;No. 23: Engraving 22
G00 X108.7883 Y100.8281 Z10.0000 F2100
G00 Z0.5000 F480
G01 Z-2.0000 F240
G01 Y126.2281 F900
G00 Z10.0000 F480


;No. 24: Engraving 20
G00 X108.7883 Y136.3882 Z10.0000 F2100
G00 Z0.5000 F480
G01 Z-2.0000 F240
G01 Y161.7882 F900
G00 Z10.0000 F480


;No. 25: Engraving 11
G00 X94.5367 Y175.2713 Z10.0000 F2100
G00 Z0.5000 F480
G01 Z-2.0000 F240
G01 X94.5350 Y227.8011 F900
G01 X107.9852 Y492.0670 F900
G01 Y490.3685 F900
G00 Z10.0000 F480


;No. 26: Engraving 2
G00 X13.4419 Y402.1425 Z10.0000 F2100
G00 Z0.5000 F480
G01 Z-2.0000 F240
G01 X4.5685 Y227.8011 F900
G01 X4.5759 Y0.5916 F900
G00 Z10.0000 F480


;No. 27: Engraving 18
G00 X97.1041 Y137.4042 Z10.0000 F2100
G00 Z0.5000 F480
G01 Z-8.0000 F240
G01 Y161.7882 F900
G01 X98.1201 F900
G01 X122.5041 F900
G01 Y160.5182 F900
G01 Y136.3882 F900
G01 X121.2341 F900
G01 X97.1041 F900
G01 Y137.4042 F900
G00 Z10.0000 F480


;No. 28: Engraving 16
G00 X89.9668 Y175.2713 Z10.0000 F2100
G00 Z0.5000 F480
G01 Z-8.0000 F240
G01 Y85.3130 F900
G01 X129.6414 F900
G01 Y175.2713 F900
G01 X89.9668 F900
G00 Z10.0000 F480


;No. 29: Engraving 76
G00 X83.8710 Y187.3333 Z10.0000 F2100
G00 Z0.5000 F480
G01 Z-8.0000 F240
G03 X85.0712 Y187.0449 I0.6348 J0.0000 F900
G03 X83.9028 Y187.5299 I-0.5651 J0.2883 F900
G01 X83.8869 Y187.4316 F900
G01 X83.8710 Y187.3333 F900
G00 Z10.0000 F480


;No. 30: Engraving 14
G00 X89.9666 Y228.0532 Z10.0000 F2100
G00 Z0.5000 F480
G01 Z-2.0000 F240
G01 X89.9668 Y175.2713 F900
G00 Z10.0000 F480


;No. 31: Engraving 75
G00 X135.6678 Y187.6212 Z10.0000 F2100
G00 Z0.5000 F480
G01 Z-8.0000 F240
G03 X134.4674 Y187.3333 I-0.5657 J-0.2879 F900
G03 X135.6676 Y187.0449 I0.6348 J0.0000 F900
G03 X135.6678 Y187.6212 I-0.5626 J0.2884 F900
G00 Z10.0000 F480


;No. 32: Engraving 8
G00 X129.6414 Y228.0532 Z10.0000 F2100
G00 Z0.5000 F480
G01 Z-8.0000 F240
G01 Y492.3192 F900
G01 X163.2044 Y492.2010 F900
G01 Y437.2967 F900
G00 Z0.0000 F480
G01 Y426.4367 F900
G01 Z-8.0000 F240
G01 Y401.6995 F900
G01 X167.5224 F900
G01 X179.9334 Y228.0532 F900
G01 Y119.7524 F900
G00 Z0.0000 F480
G01 Y108.8924 F900
G01 Z-8.0000 F240
G01 Y0.5916 F900
G01 X139.1582 Y0.5930 F900
G00 Z10.0000 F480


;No. 33: Engraving 65
G00 X290.4240 Y0.6049 Z10.0000 F2100
G00 Z0.5000 F480
G01 Z-2.0000 F240
G01 Y248.2550 F900
G01 Y465.9976 F900
G00 Z10.0000 F480


;No. 34: Engraving 71
G00 X320.4461 Y450.5426 Z10.0000 F2100
G00 Z0.5000 F480
G01 Z-2.0000 F240
G01 Y0.6049 F900
G00 Z10.0000 F480


;No. 35: Engraving 72
G00 X403.3685 Y39.5166 Z10.0000 F2100
G00 Z0.5000 F480
G01 Z-8.0000 F240
G03 X405.8101 Y40.2072 I1.2344 J0.2973 F900
G03 X403.3329 Y39.8138 I-1.2073 J-0.3934 F900
G01 X403.3370 Y39.7139 F900
G01 X403.3488 Y39.6146 F900
G01 X403.3685 Y39.5166 F900
G00 Z10.0000 F480


;No. 36: Engraving 58
G00 X461.4835 Y28.3850 Z10.0000 F2100
G00 Z0.5000 F480
G01 Z-8.0000 F240
G01 Y26.4979 F900
G01 Y7.3084 F900
G01 Y5.9389 F900
G01 X492.0609 F900
G00 Z0.0000 F480
G01 X502.9209 F900
G01 Z-8.0000 F240
G01 X533.4984 F900
G01 X672.9563 F900
G01 Y21.9146 F900
G00 Z0.0000 F480
G01 Y26.4979 F900
G01 Y27.7679 F900
G01 Y32.7746 F900
G01 Z-8.0000 F240
G01 Y129.1289 F900
G01 Y130.3989 F900
G01 Y231.7600 F900
G01 Y233.0300 F900
G01 Y253.5890 F900
G01 X672.9395 Y270.6500 F900
G01 X672.9368 Y271.6660 F900
G01 X672.7825 Y415.8175 F900
G00 Z0.0000 F480
G01 X672.7708 Y426.6775 F900
G01 Z-8.0000 F240
G01 X672.7545 Y441.9312 F900
G01 X672.7518 Y443.2012 F900
G01 X672.7146 Y477.6323 F900
G03 X670.5618 Y482.4054 I-6.3390 J0.0130 F900
G03 X667.5818 Y483.2473 I-2.3748 J-2.7107 F900
G01 X603.1065 Y471.3093 F900
G03 X587.9636 Y466.1190 I11.4719 J-58.1553 F900
G03 X570.0425 Y452.6082 I25.9718 J-53.0902 F900
G03 X561.3886 Y439.0474 I37.0409 J-33.1794 F900
G03 X558.8465 Y430.7774 I55.5084 J-21.5885 F900
G03 X557.5542 Y425.3153 I872.7000 J-209.3626 F900
G01 X546.7831 Y380.0437 F900
G00 Z0.0000 F480
G01 X544.2695 Y369.4786 F900
G01 Z-8.0000 F240
G01 X533.4984 Y324.2070 F900
G01 X461.4835 F900
G01 Y322.7005 F900
G01 Y283.2953 F900
G00 Z0.0000 F480
G01 Y272.4353 F900
G01 Z-8.0000 F240
G01 Y233.0300 F900
G01 Y231.7600 F900
G01 Y27.7679 F900
G00 Z10.0000 F480


;No. 37: Engraving 73
G00 X488.8492 Y46.4019 Z10.0000 F2100
G00 Z0.5000 F480
G01 Z-8.0000 F240
G03 X487.7784 Y45.1478 I0.2020 J-1.2567 F900
G03 X488.8553 Y43.8930 I1.2722 J0.0024 F900
G03 X489.1418 Y46.4104 I0.1913 J1.2532 F900
G01 X489.0484 Y46.4178 F900
G01 X488.9485 Y46.4137 F900
G01 X488.8492 Y46.4019 F900
G00 Z10.0000 F480


;No. 38: Engraving 67
G00 X526.7009 Y253.5890 Z10.0000 F2100
G00 Z0.5000 F480
G01 Z-2.0000 F240
G01 X468.2809 F900
G00 Z10.0000 F480


;No. 39: Engraving 66
G00 X425.3703 Y248.2550 Z10.0000 F2100
G00 Z0.5000 F480
G01 Z-2.0000 F240
G01 X366.9503 F900
G00 Z10.0000 F480


;No. 40: Engraving 59
G00 X360.1529 Y318.8730 Z10.0000 F2100
G00 Z0.5000 F480
G01 Z-8.0000 F240
G01 X432.1678 F900
G01 Y317.3665 F900
G01 Y277.9613 F900
G00 Z0.0000 F480
G01 Y267.1013 F900
G01 Z-8.0000 F240
G01 Y227.6960 F900
G01 Y226.4260 F900
G01 Y22.4339 F900
G01 Y21.1639 F900
G01 Y1.9744 F900
G01 Y0.6049 F900
G01 X401.5904 F900
G00 Z0.0000 F480
G01 X390.7304 F900
G01 Z-8.0000 F240
G01 X360.1529 F900
G01 X220.6950 F900
G01 Y16.5806 F900
G00 Z0.0000 F480
G01 Y21.1639 F900
G01 Y22.4339 F900
G01 Y27.4406 F900
G01 Z-8.0000 F240
G01 Y123.7949 F900
G01 Y125.0649 F900
G01 Y226.4260 F900
G01 Y227.6960 F900
G01 Y248.2550 F900
G01 X220.7118 Y265.0620 F900
G01 X220.7145 Y266.3320 F900
G01 X220.8919 Y432.0139 F900
G00 Z0.0000 F480
G01 X220.8968 Y436.5972 F900
G01 X220.8995 Y437.8672 F900
G01 X220.9049 Y442.8739 F900
G01 Z-8.0000 F240
G01 X220.9367 Y472.2944 F900
G02 X222.8635 Y476.8742 I6.4138 J-0.0032 F900
G02 X226.0695 Y477.9133 I2.6087 J-2.5832 F900
G01 X290.5448 Y465.9753 F900
G02 X305.6877 Y460.7850 I-11.4719 J-58.1552 F900
G02 X323.6088 Y447.2742 I-25.9718 J-53.0902 F900
G02 X332.2627 Y433.7134 I-37.0409 J-33.1794 F900
G02 X334.8048 Y425.4434 I-55.5084 J-21.5885 F900
G02 X336.0971 Y419.9813 I-872.7000 J-209.3626 F900
G01 X360.1529 Y318.8730 F900
G00 Z10.0000 F480


;No. 41: Engraving 68
G00 X360.1529 Y318.8730 Z10.0000 F2100
G00 Z0.5000 F480
G01 Z-2.0000 F240
G01 Y0.6049 F900
G00 Z10.0000 F480


;No. 42: Engraving 60
G00 X227.3806 Y248.4981 Z10.0000 F2100
G00 Z0.5000 F480
G01 Z-8.0000 F240
G01 X290.5448 Y250.7950 F900
G01 X320.2732 Y250.7197 F900
G01 X352.1095 Y248.2550 F900
G01 X227.3625 F900
G00 Z10.0000 F480


;No. 43: Engraving 35
G00 X193.0059 Y233.7113 Z10.0000 F2100
G00 Z0.5000 F480
G01 Z-8.0000 F240
G01 Y428.7411 F900
G01 Y430.8578 F900
G01 Y468.3893 F900
G00 Z0.0000 F480
G01 Y479.2493 F900
G01 Z-8.0000 F240
G01 Y495.3000 F900
G01 X194.2759 F900
G01 X218.4059 F900
G01 Y494.0300 F900
G01 Y67.0812 F900
G00 Z0.0000 F480
G01 Y56.2212 F900
G01 Z-8.0000 F240
G01 Y0.0000 F900
G01 X217.1359 F900
G01 X193.0059 F900
G01 Y1.2700 F900
G01 Y53.2440 F900
G01 Y54.3024 F900
G01 Y232.1026 F900
G01 Y233.7113 F900
G00 Z10.0000 F480


;No. 44: Engraving 13
G00 X129.6414 Y238.1580 Z10.0000 F2100
G00 Z0.5000 F480
G01 Z-8.0000 F240
G01 X116.8640 Y492.3192 F900
G01 X115.3510 Y492.2603 F900
G01 X115.3108 Y492.2580 F900
G00 Z0.0000 F480
G01 X112.0454 Y492.0670 F900
G01 X107.7274 F900
G01 X104.4668 Y492.3276 F900
G01 Z-8.0000 F240
G01 X103.8990 Y492.3730 F900
G01 X102.7440 Y492.3193 F900
G01 X89.9667 Y238.1543 F900
G00 Z10.0000 F480


;No. 45: Engraving 15
G00 X129.6414 Y228.0532 Z10.0000 F2100
G00 Z0.5000 F480
G01 Z-2.0000 F240
G01 Y175.2713 F900
G00 Z10.0000 F480


;No. 46: Engraving 6
G00 X39.6748 Y228.0532 Z10.0000 F2100
G00 Z0.5000 F480
G01 Z-8.0000 F240
G01 X52.0858 Y401.6995 F900
G01 X56.4038 F900
G01 Y426.4367 F900
G00 Z0.0000 F480
G01 Y437.2967 F900
G01 Z-8.0000 F240
G01 Y492.2010 F900
G01 X89.9668 Y492.3192 F900
G01 X89.9666 Y228.0532 F900
G00 Z10.0000 F480


;No. 47: Engraving 3
G00 X0.0000 Y228.0532 Z10.0000 F2100
G00 Z0.5000 F480
G01 Z-2.0000 F240
G01 X39.6748 F900
G00 Z10.0000 F480


;No. 48: Engraving 37
G00 X359.1379 Y425.0644 Z10.0000 F2100
G00 Z0.5000 F480
G01 Z-8.0000 F240
G01 X388.2083 F900
G01 X389.3894 F900
G01 Y392.6738 F900
G00 Z0.0000 F480
G01 Y381.8138 F900
G01 Z-8.0000 F240
G01 Y368.3335 F900
G01 X388.5073 Y367.6406 F900
G01 X378.9119 Y364.6633 F900
G01 Y355.4948 F900
G01 X378.4928 Y354.7328 F900
G01 X357.9569 F900
G01 Y355.6599 F900
G01 Y357.8939 F900
G01 Y397.2443 F900
G00 Z0.0000 F480
G01 Y408.1043 F900
G01 Z-8.0000 F240
G01 Y425.0644 F900
G01 X359.1379 F900
G00 Z10.0000 F480


;No. 49: Engraving 52
G00 X357.8784 Y432.1128 Z10.0000 F2100
G00 Z0.5000 F480
G01 Z-2.0000 F240
G01 Y495.9444 F900
G00 Z10.0000 F480


;No. 50: Engraving 82
G00 X362.1964 Y495.9444 Z10.0000 F2100
G00 Z0.5000 F480
G01 Z-2.0000 F240
G01 Y432.1128 F900
G00 Z10.0000 F480


;No. 51: Engraving 50
G00 X397.5532 Y432.1128 Z10.0000 F2100
G00 Z0.5000 F480
G01 Z-2.0000 F240
G01 Y493.9124 F900
G00 Z10.0000 F480


;No. 52: Engraving 83
G00 X393.2352 Y493.9124 Z10.0000 F2100
G00 Z0.5000 F480
G01 Z-2.0000 F240
G01 Y432.1128 F900
G00 Z10.0000 F480


;No. 53: Engraving 36
G00 X418.6352 Y432.1128 Z10.0000 F2100
G00 Z0.5000 F480
G01 Z-8.0000 F240
G01 X336.7964 F900
G01 Y433.6368 F900
G01 Y468.7292 F900
G00 Z0.0000 F480
G01 Y479.5892 F900
G01 Z-8.0000 F240
G01 Y494.4204 F900
G01 Y495.9444 F900
G01 X362.1964 F900
G01 X393.2352 Y493.9124 F900
G01 X418.6352 F900
G01 Y492.1344 F900
G01 Y458.3967 F900
G00 Z0.0000 F480
G01 Y447.5367 F900
G01 Z-8.0000 F240
G01 Y433.3828 F900
G01 Y432.1128 F900
G00 Z10.0000 F480


;No. 54: Engraving 43
G00 X424.9650 Y469.8164 Z10.0000 F2100
G00 Z0.5000 F480
G01 Z-8.0000 F240
G03 X422.5879 Y466.9852 I1.2468 J-3.4603 F900
G03 X422.4681 Y466.0941 I5.7139 J-1.2218 F900
G00 Z10.0000 F480


;No. 55: Engraving 42
G00 X425.4360 Y469.9562 Z10.0000 F2100
G00 Z0.5000 F480
G01 Z-8.0000 F240
G01 X436.4975 Y473.2419 F900
G00 Z0.0000 F480
G01 X446.9079 Y476.3342 F900
G01 Z-8.0000 F240
G01 X474.2360 Y484.4516 F900
G00 Z10.0000 F480


;No. 56: Engraving 47
G00 X473.9983 Y483.0160 Z10.0000 F2100
G00 Z0.5000 F480
G01 Z-2.0000 F240
G01 X451.2128 Y345.3398 F900
G00 Z10.0000 F480


;No. 57: Engraving 39
G00 X466.0028 Y341.5224 Z10.0000 F2100
G00 Z0.5000 F480
G01 Z-8.0000 F240
G03 X470.1073 Y342.1978 I0.9041 J7.3153 F900
G03 X474.6164 Y345.2595 I-7.8215 J16.3705 F900
G03 X475.8636 Y346.4289 I-22.1417 J24.8641 F900
G01 X499.6501 Y372.5278 F900
G00 Z0.0000 F480
G01 X506.9655 Y380.5543 F900
G01 Z-8.0000 F240
G01 X558.1962 Y436.7653 F900
G00 Z10.0000 F480


;No. 58: Engraving 70
G00 X573.2052 Y455.8766 Z10.0000 F2100
G00 Z0.5000 F480
G01 Z-2.0000 F240
G01 Y5.9389 F900
G00 Z10.0000 F480


;No. 59: Engraving 79
G00 X734.1475 Y31.7037 Z10.0000 F2100
G00 Z0.5000 F480
G01 Z-2.0000 F240
G01 X732.9779 Y292.0581 F900
G00 Z10.0000 F480


;No. 60: Engraving 57
G00 X714.6141 Y274.9574 Z10.0000 F2100
G00 Z0.5000 F480
G01 Z-8.0000 F240
G01 X714.5571 Y287.6573 F900
G01 X710.2391 Y287.6379 F900
G01 X710.2962 Y274.9380 F900
G01 X714.6141 Y274.9574 F900
G00 Z10.0000 F480


;No. 61: Engraving 78
G00 X691.7795 Y291.8730 Z10.0000 F2100
G00 Z0.5000 F480
G01 Z-2.0000 F240
G01 X692.9491 Y31.5186 F900
G00 Z10.0000 F480


;No. 62: Engraving 81
G00 X734.1284 Y35.9504 Z10.0000 F2100
G00 Z0.5000 F480
G01 Z-2.0000 F240
G01 X692.9300 Y35.7654 F900
G00 Z10.0000 F480


;No. 63: Engraving 80
G00 X733.4711 Y182.2795 Z10.0000 F2100
G00 Z0.5000 F480
G01 Z-2.0000 F240
G01 X692.2727 Y182.0944 F900
G00 Z10.0000 F480


;No. 64: Engraving 61
G00 X666.2707 Y253.8321 Z10.0000 F2100
G00 Z0.5000 F480
G01 Z-8.0000 F240
G01 X603.1065 Y256.1290 F900
G01 X573.3781 Y256.0537 F900
G01 X541.5418 Y253.5890 F900
G01 X666.2888 F900
G00 Z10.0000 F480


;No. 65: Engraving 53
G00 X686.7094 Y289.6630 Z10.0000 F2100
G00 Z0.5000 F480
G01 Z-8.0000 F240
G01 X687.8613 Y33.2454 F900
G01 X687.8692 Y31.4956 F900
G01 X716.6781 Y31.6250 F900
G00 Z0.0000 F480
G01 X727.5380 Y31.6738 F900
G01 Z-8.0000 F240
G01 X739.2274 Y31.7263 F900
G01 X739.2148 Y34.5344 F900
G01 X738.0663 Y290.2112 F900
G01 X738.0579 Y292.0809 F900
G01 X709.2490 Y291.9515 F900
G00 Z0.0000 F480
G01 X698.3891 Y291.9027 F900
G01 Z-8.0000 F240
G01 X686.6996 Y291.8502 F900
G01 X686.7094 Y289.6630 F900
G00 Z10.0000 F480


;No. 66: Engraving 54
G00 X685.1397 Y296.3804 Z10.0000 F2100
G00 Z0.5000 F480
G01 Z-8.0000 F240
G01 X705.0320 Y296.4245 F900
G00 Z0.0000 F480
G01 X715.8920 Y296.4486 F900
G01 Z-8.0000 F240
G01 X735.7842 Y296.4928 F900
G01 X737.0542 Y296.4956 F900
G01 X736.8327 Y396.3267 F900
G01 X739.8806 Y396.3335 F900
G01 X741.1506 Y396.3363 F900
G01 X741.1451 Y398.7824 F900
G03 X732.1686 Y407.7192 I-8.9834 J-0.0467 F900
G01 X726.0184 Y407.7056 F900
G00 Z0.0000 F480
G01 X715.1584 Y407.6815 F900
G01 Z-8.0000 F240
G01 X709.0082 Y407.6678 F900
G03 X704.7501 Y406.4520 I0.1757 J-8.6799 F900
G03 X701.2852 Y403.6386 I8.1296 J-13.5526 F900
G03 X697.0573 Y397.8699 I24.2797 J-22.2278 F900
G03 X692.0370 Y387.3751 I65.6882 J-37.8712 F900
G03 X686.2832 Y369.4759 I150.9947 J-58.4126 F900
G03 X680.0377 Y336.9502 I238.6901 J-62.6945 F900
G03 X679.3278 Y327.1269 I89.2855 J-11.3900 F900
G01 X683.8015 Y327.1368 F900
G01 X683.8697 Y296.3775 F900
G01 X685.1397 Y296.3804 F900
G00 Z10.0000 F480


;No. 67: Engraving 55
G00 X713.5411 Y413.4938 Z10.0000 F2100
G00 Z0.5000 F480
G01 Z-8.0000 F240
G01 Y454.2958 F900
G00 Z0.0000 F480
G01 Y465.1558 F900
G01 Z-8.0000 F240
G01 Y482.8418 F900
G01 X715.0651 F900
G01 X738.9411 F900
G01 Y481.5718 F900
G01 Y440.7698 F900
G00 Z0.0000 F480
G01 Y429.9098 F900
G01 Z-8.0000 F240
G01 Y412.2238 F900
G01 X737.4171 F900
G01 X713.5411 F900
G01 Y413.4938 F900
G00 Z10.0000 F480


;No. 68: Engraving 56
G00 X706.9371 Y481.5718 Z10.0000 F2100
G00 Z0.5000 F480
G01 Z-8.0000 F240
G01 Y463.8858 F900
G00 Z0.0000 F480
G01 Y453.0258 F900
G01 Z-8.0000 F240
G01 Y412.2238 F900
G01 X705.4131 F900
G01 X681.5371 F900
G01 Y413.4938 F900
G01 Y431.1798 F900
G00 Z0.0000 F480
G01 Y442.0398 F900
G01 Z-8.0000 F240
G01 Y482.8418 F900
G01 X683.0611 F900
G01 X706.9371 F900
G01 Y481.5718 F900
G00 Z10.0000 F480


;No. 69: Engraving 64
G00 X603.2273 Y471.3316 Z10.0000 F2100
G00 Z0.5000 F480
G01 Z-2.0000 F240
G01 Y253.5890 F900
G01 Y5.9389 F900
G00 Z10.0000 F480


;No. 70: Engraving 69
G00 X533.4984 Y324.2070 Z10.0000 F2100
G00 Z0.5000 F480
G01 Z-2.0000 F240
G01 Y5.9389 F900
G00 Z10.0000 F480


;No. 71: Engraving 38
G00 X430.7584 Y347.0642 Z10.0000 F2100
G00 Z0.5000 F480
G01 Z-8.0000 F240
G01 X465.3155 Y341.6297 F900
G00 Z10.0000 F480


;No. 72: Engraving 41
G00 X430.2404 Y347.1459 Z10.0000 F2100
G00 Z0.5000 F480
G01 Z-8.0000 F240
G02 X425.7603 Y348.2875 I2.4863 J19.1188 F900
G02 X423.0419 Y350.4722 I2.0094 J5.2840 F900
G02 X422.0560 Y353.7037 I6.6064 J3.7816 F900
G02 X421.9649 Y355.4727 I18.0033 J1.8140 F900
G01 X421.9645 Y355.6091 F900
G01 X421.9647 Y355.7454 F900
G00 Z10.0000 F480


;No. 73: Engraving 40
G00 X421.9669 Y356.2161 Z10.0000 F2100
G00 Z0.5000 F480
G01 Z-8.0000 F240
G01 X422.4665 Y465.7495 F900
G00 Z10.0000 F480


;No. 74: Engraving 48
G00 X453.6043 Y468.6829 Z10.0000 F2100
G00 Z0.5000 F480
G01 Z-8.0000 F240
G01 X463.6280 Y467.0240 F900
G00 Z10.0000 F480


;No. 75: Engraving 44
G00 X475.9831 Y484.1625 Z10.0000 F2100
G00 Z0.5000 F480
G01 Z-8.0000 F240
G01 X499.2951 Y480.3043 F900
G01 X501.6020 Y494.2425 F900
G00 Z10.0000 F480


;No. 76: Engraving 45
G00 X501.6843 Y494.7402 Z10.0000 F2100
G00 Z0.5000 F480
G01 Z-8.0000 F240
G02 X502.5798 Y495.7439 I1.4343 J-0.3784 F900
G02 X503.9322 Y495.8478 I0.7958 J-1.5053 F900
G01 X539.3223 Y478.2852 F900
G01 X538.6173 Y474.0251 F900
G01 X563.0155 Y469.9871 F900
G00 Z10.0000 F480


;No. 77: Engraving 46
G00 X563.6764 Y469.8778 Z10.0000 F2100
G00 Z0.5000 F480
G01 Z-8.0000 F240
G01 X558.2858 Y437.3072 F900
G00 Z10.0000 F480
G00 X0.0000 Y0.0000 F2100

M05
