;Project Trainer-2
;Created by Estlcam version 11 build 11.116
;Machining time about 00:41:47 hours

G90
M03 S24000
G00 X0.0000 Y0.0000 Z0.0000 F2100
G00 Z10.0000 F480


;No. 1: Engraving 36
G00 X51.8651 Y30.1234 F2100
G00 Z0.5000 F480
G01 Z-8.0000 F240 S24000
G03 X52.4416 Y31.2539 I0.2881 J0.5654 F900
G03 X51.5181 Y30.6887 I-0.2884 J-0.5658 F900
G03 X51.8651 Y30.1234 I0.6365 J0.0014 F900
G00 Z10.0000 F480


;No. 2: Engraving 35
G00 X52.1531 Y67.9613 Z10.0000 F2100
G00 Z0.5000 F480
G01 Z-8.0000 F240
G03 X52.0539 Y69.2233 I0.0001 J0.6349 F900
G03 X51.5181 Y68.5963 I0.1005 J-0.6283 F900
G03 X52.1531 Y67.9613 I0.6364 J0.0014 F900
G00 Z10.0000 F480


;No. 3: Engraving 38
G00 X129.8971 Y68.3079 Z10.0000 F2100
G00 Z0.5000 F480
G01 Z-8.0000 F240
G03 X128.7288 Y68.7929 I-0.5651 J0.2883 F900
G01 X128.6969 Y68.5963 F900
G03 X129.8971 Y68.3079 I0.6348 J0.0001 F900
G00 Z10.0000 F480


;No. 4: Engraving 37
G00 X129.9510 Y30.5905 Z10.0000 F2100
G00 Z0.5000 F480
G01 Z-8.0000 F240
G03 X128.7288 Y30.8853 I-0.6238 J0.0948 F900
G01 X128.7129 Y30.7870 F900
G01 X128.6969 Y30.6887 F900
G03 X129.8971 Y30.4003 I0.6348 J0.0001 F900
G01 X129.9351 Y30.4922 F900
G01 X129.9510 Y30.5905 F900
G00 Z10.0000 F480


;No. 5: Engraving 61
G00 X111.3419 Y14.9184 Z10.0000 F2100
G00 Z0.5000 F480
G01 Z-2.0000 F240
G01 Y159.3315 F900
G00 Z10.0000 F480


;No. 6: Engraving 62
G00 X115.6599 Y159.3315 Z10.0000 F2100
G00 Z0.5000 F480
G01 Z-2.0000 F240
G01 Y14.9184 F900
G00 Z10.0000 F480


;No. 7: Engraving 29
G00 X204.3346 Y43.9313 Z10.0000 F2100
G00 Z0.5000 F480
G01 Z-2.0000 F240
G01 Y41.2643 F900
G00 Z10.0000 F480


;No. 8: Engraving 28
G00 X206.8111 Y41.2643 Z10.0000 F2100
G00 Z0.5000 F480
G01 Z-2.0000 F240
G01 X201.8581 F900
G00 Z10.0000 F480


;No. 9: Engraving 30
G00 X206.8111 Y43.9313 Z10.0000 F2100
G00 Z0.5000 F480
G01 Z-2.0000 F240
G01 X201.8581 F900
G00 Z10.0000 F480


;No. 10: Engraving 27
G00 X215.1931 Y31.7393 Z10.0000 F2100
G00 Z0.5000 F480
G01 Z-2.0000 F240
G01 X220.0191 F900
G01 Y34.2792 F900
G00 Z10.0000 F480


;No. 11: Engraving 31
G00 X212.3695 Y7.0645 Z10.0000 F2100
G00 Z0.5000 F480
G01 Z-8.0000 F240
G01 X221.5906 Y31.1003 F900
G01 Y37.1794 F900
G01 Y38.7079 F900
G01 Y43.8447 F900
G00 Z0.0000 F480
G01 Y54.7047 F900
G01 Z-8.0000 F240
G01 Y70.4082 F900
G03 X219.4815 Y72.5173 I-2.1153 J-0.0062 F900
G01 X212.8864 F900
G01 X199.5247 Y46.2443 F900
G01 Y26.5017 F900
G01 Y25.1835 F900
G01 Y9.1736 F900
G03 X201.6338 Y7.0645 I2.1176 J0.0084 F900
G01 X209.9367 F900
G01 X210.3939 F900
G01 X212.5219 F900
G00 Z10.0000 F480


;No. 12: Engraving 65
G00 X223.1529 Y83.9905 Z10.0000 F2100
G00 Z0.5000 F480
G01 Z-2.0000 F240
G01 Y240.0116 F900
G00 Z10.0000 F480


;No. 13: Engraving 3
G00 X248.8987 Y266.3658 Z10.0000 F2100
G00 Z0.5000 F480
G01 Z-8.0000 F240
G01 X248.8988 Y365.9068 F900
G00 Z0.0000 F480
G01 Y376.7668 F900
G01 Z-8.0000 F240
G01 Y423.8223 F900
G01 X248.8990 Y424.8597 F900
G01 X324.0912 Y349.6674 F900
G01 Y349.0699 F900
G01 X324.0911 Y341.1461 F900
G01 X324.0912 Y340.7106 F900
G01 X302.8667 Y319.4861 F900
G00 Z0.0000 F480
G01 X295.1876 Y311.8069 F900
G01 Z-8.0000 F240
G01 X248.8990 Y265.5183 F900
G01 X248.8987 Y266.3658 F900
G00 Z10.0000 F480


;No. 14: Engraving 41
G00 X302.9500 Y297.1535 Z10.0000 F2100
G00 Z0.5000 F480
G01 Z-8.0000 F240
G03 X303.5265 Y298.2840 I0.2881 J0.5654 F900
G03 X302.6031 Y297.7188 I-0.2882 J-0.5661 F900
G03 X302.9500 Y297.1535 I0.6365 J0.0014 F900
G00 Z10.0000 F480


;No. 15: Engraving 58
G00 X367.1711 Y302.8184 Z10.0000 F2100
G00 Z0.5000 F480
G01 Z-8.0000 F240
G01 X377.9272 F900
G01 X424.8294 Y236.4960 F900
G01 X474.6642 F900
G01 Y106.9337 F900
G00 Z0.0000 F480
G01 Y96.0737 F900
G01 Z-8.0000 F240
G01 Y80.4749 F900
G01 X424.8294 F900
G01 X424.6939 Y76.8948 F900
G02 X423.3836 Y65.3261 I-152.7546 J11.4428 F900
G02 X416.5805 Y33.8261 I-244.7999 J36.3856 F900
G02 X411.3084 Y18.5967 I-132.7174 J37.4167 F900
G02 X406.9430 Y9.7714 I-64.8679 J26.5945 F900
G01 X405.4956 Y7.5075 F900
G01 X403.8865 Y5.3560 F900
G01 X402.0709 Y3.3768 F900
G01 X399.9920 Y1.6789 F900
G01 X397.6053 Y0.4596 F900
G01 X395.8642 Y0.0527 F900
G01 X394.9704 Y0.0000 F900
G01 X371.8099 F900
G02 X362.8532 Y8.9567 I0.0265 J8.9833 F900
G01 Y11.4028 F900
G01 X358.5352 F900
G01 X341.2068 F900
G00 Z0.0000 F480
G01 X330.3468 F900
G01 Z-8.0000 F240
G01 X313.0184 F900
G01 Y8.9567 F900
G02 X304.0617 Y0.0000 I-8.9829 J0.0261 F900
G01 X280.9012 F900
G01 X278.2663 Y0.4596 F900
G01 X275.8797 Y1.6789 F900
G01 X273.8008 Y3.3768 F900
G01 X271.9851 Y5.3560 F900
G01 X270.3761 Y7.5076 F900
G02 X265.2715 Y16.9510 I49.4444 J32.8282 F900
G02 X260.3225 Y30.3945 I118.8719 J51.3933 F900
G02 X254.3016 Y54.7313 I223.1706 J68.1252 F900
G02 X251.4798 Y73.3245 I209.0201 J41.2327 F900
G02 X251.0422 Y80.4749 I67.9164 J7.7452 F900
G01 Y81.9989 F900
G01 Y236.4960 F900
G01 X271.3581 Y265.2238 F900
G00 Z0.0000 F480
G01 X277.6286 Y274.0906 F900
G01 Z-8.0000 F240
G01 X297.9444 Y302.8184 F900
G01 X308.7005 F900
G01 Y155.8159 F900
G01 X367.1711 F900
G01 X367.0982 Y174.9996 F900
G00 Z0.0000 F480
G01 X367.0569 Y185.8595 F900
G01 Z-8.0000 F240
G01 X366.9840 Y205.0431 F900
G00 Z10.0000 F480


;No. 16: Engraving 69
G00 X362.8516 Y155.8159 Z10.0000 F2100
G00 Z0.5000 F480
G01 Z-2.0000 F240
G01 Y11.4028 F900
G00 Z10.0000 F480


;No. 17: Engraving 68
G00 X358.5336 Y11.4028 Z10.0000 F2100
G00 Z0.5000 F480
G01 Z-2.0000 F240
G01 Y155.8159 F900
G00 Z10.0000 F480


;No. 18: Engraving 47
G00 X373.2495 Y152.5729 Z10.0000 F2100
G00 Z0.5000 F480
G01 Z-8.0000 F240
G03 X372.0273 Y152.8677 I-0.6238 J0.0948 F900
G01 X372.0114 Y152.7695 F900
G01 X371.9954 Y152.6712 F900
G03 X373.1956 Y152.3828 I0.6348 J0.0001 F900
G01 X373.2336 Y152.4747 F900
G01 X373.2495 Y152.5729 F900
G00 Z10.0000 F480


;No. 19: Engraving 67
G00 X317.3348 Y155.8159 Z10.0000 F2100
G00 Z0.5000 F480
G01 Z-2.0000 F240
G01 Y11.4028 F900
G00 Z10.0000 F480


;No. 20: Engraving 44
G00 X299.1488 Y26.5695 Z10.0000 F2100
G00 Z0.5000 F480
G01 Z-8.0000 F240
G03 X299.5414 Y27.7763 I0.1959 J0.6035 F900
G03 X298.7098 Y27.1731 I-0.1964 J-0.6040 F900
G03 X299.1488 Y26.5695 I0.6365 J0.0014 F900
G00 Z10.0000 F480


;No. 21: Engraving 43
G00 X298.8315 Y64.7078 Z10.0000 F2100
G00 Z0.5000 F480
G01 Z-8.0000 F240
G03 X299.8583 Y65.4534 I0.5133 J0.3729 F900
G03 X298.7098 Y65.0807 I-0.5136 J-0.3731 F900
G03 X298.8315 Y64.7078 I0.6362 J0.0013 F900
G00 Z10.0000 F480


;No. 22: Engraving 46
G00 X377.0367 Y64.7075 Z10.0000 F2100
G00 Z0.5000 F480
G01 Z-8.0000 F240
G03 X376.0106 Y65.4539 I-0.5131 J0.3732 F900
G03 X375.8887 Y65.0807 I0.5198 J-0.3764 F900
G03 X377.0367 Y64.7075 I0.6348 J0.0002 F900
G00 Z10.0000 F480


;No. 23: Engraving 45
G00 X376.7196 Y26.5695 Z10.0000 F2100
G00 Z0.5000 F480
G01 Z-8.0000 F240
G03 X376.2358 Y27.7386 I-0.1960 J0.6035 F900
G03 X375.8887 Y27.1731 I0.2891 J-0.5668 F900
G03 X376.7196 Y26.5695 I0.6354 J0.0009 F900
G00 Z10.0000 F480


;No. 24: Engraving 70
G00 X424.8279 Y80.4749 Z10.0000 F2100
G00 Z0.5000 F480
G01 Z-2.0000 F240
G01 Y236.4960 F900
G00 Z10.0000 F480


;No. 25: Engraving 71
G00 X429.1459 Y236.4960 Z10.0000 F2100
G00 Z0.5000 F480
G01 Z-2.0000 F240
G01 Y80.4749 F900
G00 Z10.0000 F480


;No. 26: Engraving 72
G00 X470.3447 Y80.4749 Z10.0000 F2100
G00 Z0.5000 F480
G01 Z-2.0000 F240
G01 Y236.4960 F900
G00 Z10.0000 F480


;No. 27: Engraving 16
G00 X459.6096 Y161.7254 Z10.0000 F2100
G00 Z0.5000 F480
G01 Z-8.0000 F240
G03 X459.7130 Y163.1580 I-9.8785 J1.4334 F900
G01 Y185.0650 F900
G03 X451.0154 Y194.9517 I-10.0038 J-0.0315 F900
G01 X448.4754 F900
G03 X439.7775 Y185.0650 I1.3060 J-9.9183 F900
G01 Y163.1580 F900
G03 X439.8436 Y162.0105 I10.0372 J0.0029 F900
G03 X448.4754 Y153.2713 I9.9429 J1.1883 F900
G01 X451.0154 F900
G03 X459.6096 Y161.7254 I-1.3125 J9.9296 F900
G00 Z10.0000 F480


;No. 28: Engraving 49
G00 X550.3305 Y152.0443 Z10.0000 F2100
G00 Z0.5000 F480
G01 Z-8.0000 F240
G03 X550.5280 Y153.2903 I0.0948 J0.6236 F900
G03 X549.8107 Y152.7695 I-0.1137 J-0.5979 F900
G01 X549.7948 Y152.6712 F900
G03 X550.3305 Y152.0443 I0.6361 J0.0011 F900
G00 Z10.0000 F480


;No. 29: Engraving 73
G00 X560.2086 Y155.8159 Z10.0000 F2100
G00 Z0.5000 F480
G01 Z-2.0000 F240
G01 Y11.4028 F900
G00 Z10.0000 F480


;No. 30: Engraving 74
G00 X564.5266 Y11.4028 Z10.0000 F2100
G00 Z0.5000 F480
G01 Z-2.0000 F240
G01 Y155.8159 F900
G00 Z10.0000 F480


;No. 31: Engraving 75
G00 X605.7254 Y155.8159 Z10.0000 F2100
G00 Z0.5000 F480
G01 Z-2.0000 F240
G01 Y11.4028 F900
G00 Z10.0000 F480


;No. 32: Engraving 76
G00 X610.0434 Y11.4028 Z10.0000 F2100
G00 Z0.5000 F480
G01 Z-2.0000 F240
G01 Y155.8159 F900
G00 Z10.0000 F480


;No. 33: Engraving 55
G00 X620.3876 Y152.9591 Z10.0000 F2100
G00 Z0.5000 F480
G01 Z-8.0000 F240
G03 X619.1872 Y152.6712 I-0.5657 J-0.2879 F900
G03 X620.3874 Y152.3828 I0.6348 J0.0001 F900
G03 X620.3876 Y152.9591 I-0.5628 J0.2884 F900
G00 Z10.0000 F480


;No. 34: Engraving 57
G00 X695.6671 Y153.2713 Z10.0000 F2100
G00 Z0.5000 F480
G01 Z-8.0000 F240
G01 X698.2071 F900
G03 X706.9047 Y163.1580 I-1.3061 J9.9182 F900
G01 Y185.0650 F900
G03 X698.2071 Y194.9517 I-10.0038 J-0.0315 F900
G01 X695.6671 F900
G03 X686.9692 Y185.0650 I1.3060 J-9.9183 F900
G01 Y163.1580 F900
G03 X687.0353 Y162.0105 I10.0372 J0.0029 F900
G03 X695.6671 Y153.2713 I9.9429 J1.1883 F900
G00 Z10.0000 F480


;No. 35: Engraving 79
G00 X717.5364 Y80.4749 Z10.0000 F2100
G00 Z0.5000 F480
G01 Z-2.0000 F240
G01 Y236.4960 F900
G00 Z10.0000 F480


;No. 36: Engraving 78
G00 X676.3376 Y236.4960 Z10.0000 F2100
G00 Z0.5000 F480
G01 Z-2.0000 F240
G01 Y80.4749 F900
G00 Z10.0000 F480


;No. 37: Engraving 77
G00 X672.0196 Y80.4749 Z10.0000 F2100
G00 Z0.5000 F480
G01 Z-2.0000 F240
G01 Y236.4960 F900
G00 Z10.0000 F480


;No. 38: Engraving 10
G00 X676.1059 Y254.2316 Z10.0000 F2100
G00 Z0.5000 F480
G01 Z-8.0000 F240
G01 X650.4635 Y280.2853 F900
G00 Z0.0000 F480
G01 X642.8457 Y288.0254 F900
G01 Z-8.0000 F240
G01 X587.7521 Y344.0028 F900
G01 X499.2930 Y433.8809 F900
G02 X494.3834 Y445.4544 I11.3935 J11.6613 F900
G01 X494.3835 Y445.7109 F900
G02 X499.6806 Y457.6583 I16.3527 J-0.1022 F900
G01 X527.8719 Y485.4045 F900
G02 X539.0159 Y490.3251 I12.0139 J-12.1292 F900
G02 X548.3630 Y488.8911 I1.1191 J-23.8864 F900
G01 X570.3574 Y481.2236 F900
G01 X573.0314 Y480.2915 F900
G01 X601.7209 Y470.2900 F900
G00 Z0.0000 F480
G01 X611.9756 Y466.7151 F900
G01 Z-8.0000 F240
G01 X674.4820 Y444.9247 F900
G01 X674.7592 Y444.6430 F900
G01 X682.2616 Y437.0202 F900
G01 X689.7129 Y429.4494 F900
G01 X690.0413 Y429.1158 F900
G01 X731.4591 Y303.9333 F900
G01 X731.9951 Y302.3131 F900
G02 X733.2802 Y292.9444 I-22.5807 J-7.8697 F900
G02 X728.0657 Y281.7648 I-17.0272 J1.1362 F900
G01 X699.8318 Y253.9769 F900
G02 X676.1059 Y254.2316 I-11.7414 J11.4506 F900
G00 Z10.0000 F480


;No. 39: Engraving 56
G00 X620.3352 Y297.3456 Z10.0000 F2100
G00 Z0.5000 F480
G01 Z-8.0000 F240
G03 X619.3091 Y298.0920 I-0.5130 J0.3733 F900
G03 X619.1872 Y297.7188 I0.5198 J-0.3764 F900
G03 X620.3352 Y297.3456 I0.6348 J0.0002 F900
G00 Z10.0000 F480


;No. 40: Engraving 58
G00 X614.3613 Y302.8184 Z10.0000 F2100
G00 Z0.5000 F480
G01 Z-8.0000 F240
G01 X625.1173 F900
G01 X672.0196 Y236.4960 F900
G01 X716.4244 F900
G00 Z0.0000 F480
G01 X721.8544 F900
G01 Y231.0660 F900
G01 Z-8.0000 F240
G01 Y107.0159 F900
G00 Z0.0000 F480
G01 Y96.1559 F900
G01 Z-8.0000 F240
G01 Y80.4749 F900
G01 X672.0196 F900
G01 X671.8841 Y76.8948 F900
G02 X670.5738 Y65.3261 I-152.7546 J11.4428 F900
G02 X663.7706 Y33.8261 I-244.7999 J36.3856 F900
G02 X658.4985 Y18.5967 I-132.7174 J37.4167 F900
G02 X654.1331 Y9.7714 I-64.8679 J26.5945 F900
G01 X652.6857 Y7.5075 F900
G01 X651.0766 Y5.3560 F900
G01 X649.2610 Y3.3768 F900
G01 X647.1821 Y1.6789 F900
G01 X644.7955 Y0.4596 F900
G01 X643.0543 Y0.0527 F900
G01 X642.1606 Y0.0000 F900
G01 X619.0001 F900
G02 X610.0434 Y8.9567 I0.0265 J8.9833 F900
G01 Y11.4028 F900
G01 X605.7254 F900
G01 X588.3970 F900
G00 Z0.0000 F480
G01 X577.5370 F900
G01 Z-8.0000 F240
G01 X560.2086 F900
G01 Y8.9567 F900
G02 X551.2519 Y0.0000 I-8.9829 J0.0261 F900
G01 X528.0914 F900
G01 X525.4565 Y0.4596 F900
G01 X523.0698 Y1.6789 F900
G01 X520.9909 Y3.3768 F900
G01 X519.1753 Y5.3560 F900
G01 X517.5662 Y7.5076 F900
G02 X512.4616 Y16.9510 I49.4444 J32.8282 F900
G02 X507.5126 Y30.3945 I118.8719 J51.3933 F900
G02 X501.4918 Y54.7313 I223.1706 J68.1252 F900
G02 X498.6700 Y73.3245 I209.0201 J41.2327 F900
G02 X498.2324 Y80.4749 I67.9164 J7.7452 F900
G01 Y81.9989 F900
G01 Y236.4960 F900
G01 X518.5482 Y265.2238 F900
G00 Z0.0000 F480
G01 X524.8187 Y274.0906 F900
G01 Z-8.0000 F240
G01 X545.1346 Y302.8184 F900
G01 X555.8907 F900
G01 Y155.8159 F900
G01 X614.3613 F900
G01 X614.2572 Y183.2041 F900
G00 Z0.0000 F480
G01 X614.2159 Y194.0640 F900
G01 Z-8.0000 F240
G01 X614.1742 Y205.0431 F900
G00 Z10.0000 F480


;No. 41: Engraving 15
G00 X562.2596 Y205.0295 Z10.0000 F2100
G00 Z0.5000 F480
G01 Z-8.0000 F240
G01 X612.9042 Y205.0428 F900
G01 X614.1742 Y205.0431 F900
G01 X614.1480 Y304.8745 F900
G01 X617.1959 Y304.8753 F900
G01 X618.4659 Y304.8756 F900
G01 X618.4653 Y307.3217 F900
G03 X609.5062 Y316.2761 I-8.9836 J-0.0293 F900
G01 X586.3457 Y316.2700 F900
G03 X582.0853 Y315.0626 I0.1588 J-8.6803 F900
G03 X578.6148 Y312.2560 I8.1031 J-13.5685 F900
G03 X574.3757 Y306.4955 I24.2362 J-22.2753 F900
G03 X569.3349 Y296.0106 I65.6138 J-37.9997 F900
G03 X563.5460 Y278.1226 I150.8802 J-58.7081 F900
G03 X557.2369 Y245.6092 I238.5667 J-63.1616 F900
G03 X556.5078 Y235.7873 I89.2628 J-11.5647 F900
G01 X560.9815 Y235.7885 F900
G01 X560.9896 Y205.0292 F900
G01 X562.2596 Y205.0295 F900
G00 Z10.0000 F480


;No. 42: Engraving 50
G00 X550.6257 Y297.1152 Z10.0000 F2100
G00 Z0.5000 F480
G01 Z-8.0000 F240
G03 X550.1419 Y298.2843 I-0.1960 J0.6035 F900
G03 X549.7948 Y297.7188 I0.2891 J-0.5668 F900
G03 X550.6257 Y297.1152 I0.6354 J0.0009 F900
G00 Z10.0000 F480


;No. 43: Engraving 9
G00 X571.2830 Y340.7106 Z10.0000 F2100
G00 Z0.5000 F480
G01 Z-8.0000 F240
G01 X550.0585 Y319.4861 F900
G00 Z0.0000 F480
G01 X542.3793 Y311.8069 F900
G01 Z-8.0000 F240
G01 X496.0907 Y265.5183 F900
G01 X496.0905 Y266.3658 F900
G01 Y392.2441 F900
G00 Z0.0000 F480
G01 X496.0906 Y403.1041 F900
G01 Z-8.0000 F240
G01 Y423.8223 F900
G01 X496.0907 Y424.8597 F900
G01 X571.2830 Y349.6674 F900
G01 Y349.0699 F900
G01 X571.2829 Y341.1461 F900
G01 X571.2830 Y340.7106 F900
G00 Z10.0000 F480


;No. 44: Engraving 11
G00 X626.0138 Y354.1197 Z10.0000 F2100
G00 Z0.5000 F480
G01 Z-8.0000 F240
G01 X618.7726 Y346.9928 F900
G00 Z10.0000 F480


;No. 45: Engraving 12
G00 X647.4702 Y405.9655 Z10.0000 F2100
G00 Z0.5000 F480
G01 Z-8.0000 F240
G01 X634.1854 Y392.8904 F900
G01 X637.3724 Y389.6522 F900
G01 X650.6573 Y402.7273 F900
G01 X652.4676 Y404.5090 F900
G01 X665.7524 Y417.5840 F900
G01 X662.5653 Y420.8223 F900
G01 X649.2805 Y407.7472 F900
G01 X647.4702 Y405.9655 F900
G00 Z10.0000 F480


;No. 46: Engraving 80
G00 X519.2048 Y473.5051 Z10.0000 F2100
G00 Z0.5000 F480
G01 Z-2.0000 F240
G01 X716.1472 Y273.4033 F900
G00 Z10.0000 F480


;No. 47: Engraving 54
G00 X624.3345 Y64.9825 Z10.0000 F2100
G00 Z0.5000 F480
G01 Z-8.0000 F240
G03 X623.1122 Y65.2773 I-0.6238 J0.0948 F900
G01 X623.0804 Y65.0807 F900
G03 X624.2806 Y64.7923 I0.6348 J0.0001 F900
G01 X624.3185 Y64.8842 F900
G01 X624.3345 Y64.9825 F900
G00 Z10.0000 F480


;No. 48: Engraving 53
G00 X624.2808 Y27.4610 Z10.0000 F2100
G00 Z0.5000 F480
G01 Z-8.0000 F240
G03 X623.0804 Y27.1731 I-0.5657 J-0.2881 F900
G03 X624.2806 Y26.8847 I0.6348 J0.0001 F900
G03 X624.2808 Y27.4610 I-0.5627 J0.2884 F900
G00 Z10.0000 F480


;No. 49: Engraving 20
G00 X698.7181 Y37.7487 Z10.0000 F2100
G00 Z0.5000 F480
G01 Z-2.0000 F240
G01 Y40.4157 F900
G00 Z10.0000 F480


;No. 50: Engraving 19
G00 X701.1946 Y40.4157 Z10.0000 F2100
G00 Z0.5000 F480
G01 Z-2.0000 F240
G01 X696.2416 F900
G00 Z10.0000 F480


;No. 51: Engraving 21
G00 X701.1946 Y37.7487 Z10.0000 F2100
G00 Z0.5000 F480
G01 Z-2.0000 F240
G01 X696.2416 F900
G00 Z10.0000 F480


;No. 52: Engraving 22
G00 X709.5766 Y28.2237 Z10.0000 F2100
G00 Z0.5000 F480
G01 Z-2.0000 F240
G01 X714.4026 F900
G01 Y30.7636 F900
G00 Z10.0000 F480


;No. 53: Engraving 18
G00 X706.7529 Y3.5489 Z10.0000 F2100
G00 Z0.5000 F480
G01 Z-8.0000 F240
G01 X715.9741 Y27.5847 F900
G01 Y33.6638 F900
G01 Y35.1923 F900
G01 Y45.6125 F900
G00 Z0.0000 F480
G01 Y56.4725 F900
G01 Z-8.0000 F240
G01 Y66.8926 F900
G03 X713.8649 Y69.0017 I-2.1153 J-0.0062 F900
G01 X707.2699 F900
G01 X693.9082 Y42.7287 F900
G01 Y22.9861 F900
G01 Y21.6679 F900
G01 Y5.6580 F900
G03 X696.0172 Y3.5489 I2.1176 J0.0084 F900
G01 X704.3202 F900
G01 X704.7774 F900
G01 X706.9053 F900
G00 Z10.0000 F480


;No. 54: Engraving 52
G00 X546.4373 Y26.5462 Z10.0000 F2100
G00 Z0.5000 F480
G01 Z-8.0000 F240
G03 X546.6348 Y27.7922 I0.0948 J0.6236 F900
G03 X545.9175 Y27.2714 I-0.1136 J-0.5979 F900
G01 X545.9016 Y27.1731 F900
G03 X546.4373 Y26.5462 I0.6361 J0.0011 F900
G00 Z10.0000 F480


;No. 55: Engraving 51
G00 X547.1556 Y64.9825 Z10.0000 F2100
G00 Z0.5000 F480
G01 Z-8.0000 F240
G03 X545.9334 Y65.2773 I-0.6218 J0.1030 F900
G01 X545.9175 Y65.1790 F900
G01 X545.9016 Y65.0807 F900
G03 X547.1018 Y64.7923 I0.6348 J0.0001 F900
G01 X547.1397 Y64.8842 F900
G01 X547.1556 Y64.9825 F900
G00 Z10.0000 F480


;No. 56: Engraving 23
G00 X462.3849 Y28.2237 Z10.0000 F2100
G00 Z0.5000 F480
G01 Z-2.0000 F240
G01 X467.2109 F900
G01 Y30.7636 F900
G00 Z10.0000 F480


;No. 57: Engraving 24
G00 X454.0029 Y37.7487 Z10.0000 F2100
G00 Z0.5000 F480
G01 Z-2.0000 F240
G01 X449.0499 F900
G00 Z10.0000 F480


;No. 58: Engraving 25
G00 X451.5264 Y37.7487 Z10.0000 F2100
G00 Z0.5000 F480
G01 Z-2.0000 F240
G01 Y40.4157 F900
G00 Z10.0000 F480


;No. 59: Engraving 26
G00 X454.0029 Y40.4157 Z10.0000 F2100
G00 Z0.5000 F480
G01 Z-2.0000 F240
G01 X449.0499 F900
G00 Z10.0000 F480


;No. 60: Engraving 17
G00 X459.5612 Y3.5489 Z10.0000 F2100
G00 Z0.5000 F480
G01 Z-8.0000 F240
G01 X468.7823 Y27.5847 F900
G01 Y33.6638 F900
G01 Y35.1923 F900
G01 Y45.6125 F900
G00 Z0.0000 F480
G01 Y56.4725 F900
G01 Z-8.0000 F240
G01 Y66.8926 F900
G03 X466.6732 Y69.0017 I-2.1153 J-0.0062 F900
G01 X460.0782 F900
G01 X446.7164 Y42.7287 F900
G01 Y22.9861 F900
G01 Y21.6679 F900
G01 Y5.6580 F900
G03 X448.8255 Y3.5489 I2.1176 J0.0084 F900
G01 X457.1284 F900
G01 X457.5856 F900
G01 X459.7136 F900
G00 Z10.0000 F480


;No. 61: Engraving 66
G00 X313.0168 Y155.8159 Z10.0000 F2100
G00 Z0.5000 F480
G01 Z-2.0000 F240
G01 Y11.4028 F900
G00 Z10.0000 F480


;No. 62: Engraving 42
G00 X302.6345 Y152.4751 Z10.0000 F2100
G00 Z0.5000 F480
G01 Z-8.0000 F240
G03 X303.8035 Y152.9591 I0.6035 J0.1961 F900
G03 X302.6031 Y152.6712 I-0.5657 J-0.2881 F900
G01 X302.6111 Y152.5719 F900
G01 X302.6345 Y152.4751 F900
G00 Z10.0000 F480


;No. 63: Engraving 14
G00 X315.0678 Y205.0295 Z10.0000 F2100
G00 Z0.5000 F480
G01 Z-8.0000 F240
G01 X365.7124 Y205.0428 F900
G01 X366.9824 Y205.0431 F900
G01 X366.9563 Y304.8745 F900
G01 X370.0042 Y304.8753 F900
G01 X371.2742 Y304.8756 F900
G01 X371.2736 Y307.3217 F900
G03 X362.3145 Y316.2761 I-8.9836 J-0.0293 F900
G01 X339.1540 Y316.2700 F900
G03 X334.8936 Y315.0626 I0.1588 J-8.6803 F900
G03 X331.4231 Y312.2560 I8.1031 J-13.5685 F900
G03 X327.1840 Y306.4955 I24.2362 J-22.2753 F900
G03 X322.1432 Y296.0106 I65.6138 J-37.9997 F900
G03 X316.3543 Y278.1226 I150.8802 J-58.7081 F900
G03 X310.0452 Y245.6092 I238.5667 J-63.1616 F900
G03 X309.3161 Y235.7873 I89.2628 J-11.5647 F900
G01 X313.7898 Y235.7885 F900
G01 X313.7978 Y205.0292 F900
G01 X315.0678 Y205.0295 F900
G00 Z10.0000 F480


;No. 64: Engraving 48
G00 X372.9183 Y297.1534 Z10.0000 F2100
G00 Z0.5000 F480
G01 Z-8.0000 F240
G03 X372.2578 Y298.2322 I-0.2878 J0.5654 F900
G03 X371.9954 Y297.7188 I0.3764 J-0.5161 F900
G03 X372.9183 Y297.1534 I0.6350 J0.0006 F900
G00 Z10.0000 F480


;No. 65: Engraving 8
G00 X371.5808 Y346.9928 Z10.0000 F2100
G00 Z0.5000 F480
G01 Z-8.0000 F240
G01 X378.8220 Y354.1197 F900
G00 Z10.0000 F480


;No. 66: Engraving 5
G00 X390.1806 Y389.6522 Z10.0000 F2100
G00 Z0.5000 F480
G01 Z-8.0000 F240
G01 X403.4655 Y402.7273 F900
G01 X405.2759 Y404.5090 F900
G01 X418.5607 Y417.5840 F900
G01 X415.3736 Y420.8223 F900
G01 X402.0888 Y407.7472 F900
G01 X400.2784 Y405.9655 F900
G01 X386.9936 Y392.8904 F900
G01 X390.1806 Y389.6522 F900
G00 Z10.0000 F480


;No. 67: Engraving 81
G00 X272.0131 Y473.5051 Z10.0000 F2100
G00 Z0.5000 F480
G01 Z-2.0000 F240
G01 X468.9555 Y273.4033 F900
G00 Z10.0000 F480


;No. 68: Engraving 4
G00 X252.1013 Y433.8809 Z10.0000 F2100
G00 Z0.5000 F480
G01 Z-8.0000 F240
G01 X277.7787 Y407.7916 F900
G00 Z0.0000 F480
G01 X285.3965 Y400.0515 F900
G01 Z-8.0000 F240
G01 X340.5604 Y344.0028 F900
G01 X428.9142 Y254.2316 F900
G03 X452.6400 Y253.9769 I11.9845 J11.1959 F900
G01 X480.8739 Y281.7648 F900
G03 X486.0885 Y292.9444 I-11.8274 J12.3226 F900
G03 X484.8034 Y302.3131 I-23.8657 J1.4990 F900
G01 X484.2674 Y303.9333 F900
G01 X458.3611 Y382.2332 F900
G00 Z0.0000 F480
G01 X454.9498 Y392.5435 F900
G01 Z-8.0000 F240
G01 X442.8495 Y429.1158 F900
G01 X442.5211 Y429.4494 F900
G01 X435.0698 Y437.0202 F900
G01 X427.5675 Y444.6430 F900
G01 X427.2902 Y444.9247 F900
G01 X325.8396 Y480.2915 F900
G01 X323.1657 Y481.2236 F900
G01 X301.1712 Y488.8911 F900
G03 X291.8241 Y490.3251 I-8.2280 J-22.4524 F900
G03 X280.6801 Y485.4045 I0.8631 J-17.0342 F900
G01 X252.4889 Y457.6583 F900
G03 X247.1918 Y445.7109 I11.0558 J-12.0498 F900
G01 X247.1917 Y445.4544 F900
G03 X252.1013 Y433.8809 I16.2982 J0.0858 F900
G00 Z10.0000 F480


;No. 69: Engraving 2
G00 X195.6578 Y432.6314 Z10.0000 F2100
G00 Z0.5000 F480
G01 Z-8.0000 F240
G01 X207.7581 Y396.0591 F900
G00 Z0.0000 F480
G01 X211.1694 Y385.7488 F900
G01 Z-8.0000 F240
G01 X237.0756 Y307.4489 F900
G01 X237.6117 Y305.8287 F900
G02 X238.8968 Y296.4600 I-22.5807 J-7.8697 F900
G02 X233.6822 Y285.2804 I-17.0272 J1.1362 F900
G01 X205.4483 Y257.4925 F900
G02 X181.7224 Y257.7472 I-11.7414 J11.4506 F900
G01 X93.3686 Y347.5184 F900
G01 X38.2048 Y403.5672 F900
G00 Z0.0000 F480
G01 X30.5870 Y411.3072 F900
G01 Z-8.0000 F240
G01 X4.9095 Y437.3965 F900
G02 X0.0000 Y448.9700 I11.3935 J11.6613 F900
G01 X0.0001 Y449.2265 F900
G02 X5.2971 Y461.1739 I16.3527 J-0.1022 F900
G01 X33.4884 Y488.9201 F900
G02 X44.6324 Y493.8407 I12.0139 J-12.1292 F900
G02 X53.9795 Y492.4067 I1.1191 J-23.8864 F900
G01 X75.9740 Y484.7392 F900
G01 X78.6479 Y483.8071 F900
G01 X180.0985 Y448.4403 F900
G01 X180.3757 Y448.1586 F900
G01 X187.8781 Y440.5358 F900
G01 X195.3294 Y432.9650 F900
G01 X195.6578 Y432.6314 F900
G00 Z10.0000 F480


;No. 70: Engraving 6
G00 X142.9889 Y393.1678 Z10.0000 F2100
G00 Z0.5000 F480
G01 Z-8.0000 F240
G01 X156.2738 Y406.2429 F900
G01 X158.0841 Y408.0246 F900
G01 X171.3689 Y421.0996 F900
G01 X168.1818 Y424.3379 F900
G01 X154.8970 Y411.2628 F900
G01 X153.0867 Y409.4811 F900
G01 X139.8019 Y396.4060 F900
G01 X142.9889 Y393.1678 F900
G00 Z10.0000 F480


;No. 71: Engraving 7
G00 X124.3891 Y350.5084 Z10.0000 F2100
G00 Z0.5000 F480
G01 Z-8.0000 F240
G01 X131.6303 Y357.6353 F900
G00 Z10.0000 F480


;No. 72: Engraving 58
G00 X119.9822 Y306.3381 Z10.0000 F2100
G00 Z0.5000 F480
G01 Z-8.0000 F240
G01 X130.7383 F900
G01 X177.6405 Y240.0157 F900
G01 X227.4753 F900
G01 Y116.1987 F900
G00 Z0.0000 F480
G01 Y105.3387 F900
G01 Z-8.0000 F240
G01 Y83.9947 F900
G01 X177.6405 F900
G01 X177.5050 Y80.4146 F900
G02 X176.1947 Y68.8458 I-152.7546 J11.4428 F900
G02 X169.3915 Y37.3458 I-244.7999 J36.3856 F900
G02 X164.1194 Y22.1164 I-132.7174 J37.4167 F900
G02 X159.7540 Y13.2911 I-64.8679 J26.5945 F900
G01 X158.3066 Y11.0273 F900
G01 X156.6976 Y8.8757 F900
G01 X154.8819 Y6.8965 F900
G01 X152.8030 Y5.1986 F900
G01 X150.4164 Y3.9793 F900
G01 X148.6752 Y3.5724 F900
G01 X147.7815 Y3.5197 F900
G01 X124.6210 F900
G02 X115.6643 Y12.4764 I0.0265 J8.9833 F900
G01 Y14.9225 F900
G01 X111.3463 F900
G01 X94.0179 F900
G00 Z0.0000 F480
G01 X83.1579 F900
G01 Z-8.0000 F240
G01 X65.8295 F900
G01 Y12.4764 F900
G02 X56.8728 Y3.5197 I-8.9829 J0.0261 F900
G01 X33.7123 F900
G01 X31.0774 Y3.9793 F900
G01 X28.6907 Y5.1986 F900
G01 X26.6118 Y6.8965 F900
G01 X24.7962 Y8.8758 F900
G01 X23.1871 Y11.0273 F900
G02 X18.0825 Y20.4707 I49.4444 J32.8282 F900
G02 X13.1335 Y33.9142 I118.8719 J51.3933 F900
G02 X7.1127 Y58.2510 I223.1706 J68.1252 F900
G02 X4.2909 Y76.8442 I209.0201 J41.2327 F900
G02 X3.8533 Y83.9947 I67.9164 J7.7452 F900
G01 Y85.5187 F900
G01 Y240.0157 F900
G01 X24.1691 Y268.7435 F900
G00 Z0.0000 F480
G01 X30.4396 Y277.6104 F900
G01 Z-8.0000 F240
G01 X50.7555 Y306.3381 F900
G01 X61.5116 F900
G01 Y159.3356 F900
G01 X119.9822 F900
G01 X119.8781 Y186.7238 F900
G00 Z0.0000 F480
G01 X119.8368 Y197.5837 F900
G01 Z-8.0000 F240
G01 X119.7951 Y208.5628 F900
G00 Z10.0000 F480


;No. 73: Engraving 13
G00 X67.8761 Y208.5451 Z10.0000 F2100
G00 Z0.5000 F480
G01 Z-8.0000 F240
G01 X118.5207 Y208.5584 F900
G01 X119.7907 Y208.5587 F900
G01 X119.7646 Y308.3901 F900
G01 X122.8125 Y308.3909 F900
G01 X124.0825 Y308.3912 F900
G01 X124.0818 Y310.8374 F900
G03 X115.1228 Y319.7917 I-8.9836 J-0.0293 F900
G01 X91.9623 Y319.7856 F900
G03 X87.7018 Y318.5782 I0.1588 J-8.6803 F900
G03 X84.2314 Y315.7716 I8.1031 J-13.5685 F900
G03 X79.9923 Y310.0111 I24.2362 J-22.2753 F900
G03 X74.9514 Y299.5262 I65.6138 J-37.9997 F900
G03 X69.1626 Y281.6382 I150.8802 J-58.7081 F900
G03 X62.8535 Y249.1248 I238.5667 J-63.1616 F900
G03 X62.1244 Y239.3029 I89.2628 J-11.5647 F900
G01 X66.5981 Y239.3041 F900
G01 X66.6061 Y208.5448 F900
G01 X67.8761 Y208.5451 F900
G00 Z10.0000 F480


;No. 74: Engraving 59
G00 X65.8251 Y159.3315 Z10.0000 F2100
G00 Z0.5000 F480
G01 Z-2.0000 F240
G01 Y14.9184 F900
G00 Z10.0000 F480


;No. 75: Engraving 34
G00 X55.5331 Y155.8139 Z10.0000 F2100
G00 Z0.5000 F480
G01 Z-8.0000 F240
G03 X56.5598 Y156.5595 I0.5133 J0.3729 F900
G03 X55.4113 Y156.1868 I-0.5137 J-0.3729 F900
G03 X55.5331 Y155.8139 I0.6362 J0.0013 F900
G00 Z10.0000 F480


;No. 76: Engraving 60
G00 X70.1431 Y159.3315 Z10.0000 F2100
G00 Z0.5000 F480
G01 Z-2.0000 F240
G01 Y14.9184 F900
G00 Z10.0000 F480


;No. 77: Engraving 39
G00 X126.0419 Y155.9903 Z10.0000 F2100
G00 Z0.5000 F480
G01 Z-8.0000 F240
G03 X124.8196 Y156.2851 I-0.5987 J0.1988 F900
G01 X124.8037 Y156.1868 F900
G03 X126.0039 Y155.8984 I0.6348 J0.0001 F900
G01 X126.0419 Y155.9903 F900
G00 Z10.0000 F480


;No. 78: Engraving 32
G00 X194.8911 Y160.3164 Z10.0000 F2100
G00 Z0.5000 F480
G01 Z-8.0000 F240
G03 X201.2836 Y156.7869 I7.6868 J6.3685 F900
G01 X203.8236 F900
G03 X212.5213 Y166.6736 I-1.3061 J9.9182 F900
G01 Y188.5806 F900
G03 X203.8236 Y198.4673 I-10.0038 J-0.0315 F900
G01 X201.2836 F900
G03 X192.5857 Y188.5806 I1.3060 J-9.9183 F900
G01 Y166.6736 F900
G03 X192.6519 Y165.5261 I10.0372 J0.0029 F900
G03 X194.8911 Y160.3164 I9.8636 J1.1535 F900
G00 Z10.0000 F480


;No. 79: Engraving 64
G00 X181.9541 Y240.0116 Z10.0000 F2100
G00 Z0.5000 F480
G01 Z-2.0000 F240
G01 Y83.9905 F900
G00 Z10.0000 F480


;No. 80: Engraving 63
G00 X177.6361 Y240.0116 Z10.0000 F2100
G00 Z0.5000 F480
G01 Z-2.0000 F240
G01 Y83.9905 F900
G00 Z10.0000 F480


;No. 81: Engraving 40
G00 X125.7266 Y300.6690 Z10.0000 F2100
G00 Z0.5000 F480
G01 Z-8.0000 F240
G03 X125.0661 Y301.7478 I-0.2878 J0.5654 F900
G03 X124.8037 Y301.2344 I0.3764 J-0.5161 F900
G03 X125.7266 Y300.6690 I0.6350 J0.0006 F900
G00 Z10.0000 F480


;No. 82: Engraving 33
G00 X56.5598 Y301.6071 Z10.0000 F2100
G00 Z0.5000 F480
G01 Z-8.0000 F240
G03 X55.4113 Y301.2344 I-0.5137 J-0.3729 F900
G03 X56.6115 Y300.9460 I0.6348 J0.0001 F900
G03 X56.5598 Y301.6071 I-0.5637 J0.2884 F900
G00 Z10.0000 F480


;No. 83: Engraving 1
G00 X1.7070 Y269.8814 Z10.0000 F2100
G00 Z0.5000 F480
G01 Z-8.0000 F240
G01 X1.7071 Y391.0763 F900
G00 Z0.0000 F480
G01 Y401.9363 F900
G01 Z-8.0000 F240
G01 Y427.3379 F900
G01 X1.7072 Y428.3753 F900
G01 X76.8995 Y353.1830 F900
G01 Y352.5855 F900
G01 X76.8994 Y344.6617 F900
G01 X76.8995 Y344.2262 F900
G01 X55.6750 Y323.0017 F900
G00 Z0.0000 F480
G01 X47.9958 Y315.3225 F900
G01 Z-8.0000 F240
G01 X1.7072 Y269.0339 F900
G01 X1.7070 Y269.8814 F900
G00 Z10.0000 F480


;No. 84: Engraving 82
G00 X24.8213 Y477.0207 Z10.0000 F2100
G00 Z0.5000 F480
G01 Z-2.0000 F240
G01 X221.7637 Y276.9189 F900
G00 Z10.0000 F480
G00 X0.0000 Y0.0000 F2100

M05
